X:515
T: As I Went Out Upon the Ice
S: B.Breathnach: "Ceol Rince na hEireann" II/122 (gan ainm)
Z: B.Black
L: 1/8
M: 2/4
R: polka
K: Ador
B/d/|eA BA|eA AB/d/|eA BB/A/|G2 GB/d/|
eA BA|eA A/d/B/A/|GB dB|A2 A :|
B/d/|ea a>f|gf/g/ ed|(3Bcd ef|g2 gg/f/|
ea aa/f/|gf/g/ ed|Bd gB|A2 A :|

